static/assets/images/exchanges/ambient.svg

<svg width="302" height="262" viewBox="0 0 302 262" fill="none" xmlns="http://www.w3.org/2000/svg">
<path d="M92.819 110.376H91.319H89.819C89.819 145.139 116.944 173.421 150.525 173.421C184.107 173.421 211.232 145.139 211.232 110.376H209.732H208.232C208.232 141.394 182.432 166.604 150.525 166.604C118.619 166.604 92.819 141.394 92.819 110.376ZM81.3373 110.056C81.3373 102.022 82.2092 94.3754 84.6054 87.2859L83.1844 86.8056L81.7634 86.3253C79.2686 93.7063 77.3889 101.698 77.3889 110.056C77.3889 151.869 110.082 185.861 150.525 185.861C190.969 185.861 223.662 151.869 223.662 110.056C223.662 101.733 221.832 93.7716 219.354 86.4096L217.933 86.8881L216.511 87.3666C218.888 94.4292 219.714 102.046 219.714 110.056C219.714 148.119 188.764 178.192 150.525 178.192C112.287 178.192 81.3373 148.119 81.3373 110.056ZM225.022 67.8815L223.716 68.6184C230.626 80.8687 234.104 95.0583 234.104 110.222C234.104 155.503 196.74 191.003 150.525 191.003C104.31 191.003 66.9467 155.503 66.9467 110.222C66.9467 95.0353 70.4742 80.8229 77.4077 68.5565L76.1019 67.8184L74.7961 67.0803C67.6165 79.7821 62.9962 94.5049 62.9962 110.222C62.9962 159.559 102.154 199.61 150.525 199.61C198.896 199.61 238.055 159.559 238.055 110.222C238.055 94.5338 233.487 79.8342 226.329 67.1445L225.022 67.8815ZM49.9363 110.139C49.9363 86.919 57.1755 65.5387 70.1016 48.4258L68.9047 47.5217L67.7078 46.6177C54.4021 64.2331 45.9866 86.2452 45.9866 110.139C45.9866 169.632 92.7463 217.942 150.525 217.942C208.305 217.942 255.064 169.632 255.064 110.139C255.064 86.2656 246.701 64.2698 233.413 46.6602L232.216 47.5636L231.019 48.4671C243.925 65.5716 251.114 86.9354 251.114 110.139C251.114 164.804 206.122 208.124 150.525 208.124C94.9286 208.124 49.9363 164.804 49.9363 110.139ZM271.574 110.343C271.574 176.205 217.428 227.899 150.525 227.899C83.6226 227.899 29.4767 176.205 29.4767 110.343C29.4767 65.0836 53.3688 25.5828 89.6798 4.43376L88.9248 3.13759L88.1699 1.84142C50.9761 23.5047 25.0517 63.9711 25.0517 110.343C25.0517 181.305 81.1936 238.894 150.525 238.894C219.857 238.894 275.999 181.305 275.999 110.343C275.999 63.8723 250.006 23.3316 212.679 1.70215L211.927 3L211.175 4.29785C247.614 25.4129 271.574 64.9855 271.574 110.343ZM296.551 110.376C296.551 189.626 231.265 249.144 150.525 249.144C69.7859 249.144 4.5 189.626 4.5 110.376H3H1.5C1.5 195.066 68.2219 260.5 150.525 260.5C232.829 260.5 299.551 195.066 299.551 110.376H298.051H296.551Z" fill="#8A89F1" stroke="#8A89F1" stroke-width="3"/>
</svg>

<svg xmlns="http://www.w3.org/2000/svg" fill="none" viewBox="0 0 302 262"><path fill="#8A89F1" stroke="#8A89F1" stroke-width="3" d="M92.819 110.376h-3c0 34.763 27.125 63.045 60.706 63.045s60.707-28.282 60.707-63.045h-3c0 31.018-25.8 56.228-57.707 56.228-31.906 0-57.706-25.21-57.706-56.228Zm-11.482-.32c0-8.034.872-15.68 3.268-22.77l-1.42-.48-1.422-.48c-2.494 7.38-4.374 15.372-4.374 23.73 0 41.813 32.693 75.805 73.136 75.805 40.444 0 73.137-33.992 73.137-75.805 0-8.323-1.83-16.284-4.308-23.646l-1.421.478-1.422.479c2.377 7.062 3.203 14.679 3.203 22.689 0 38.063-30.95 68.136-69.189 68.136s-69.188-30.073-69.188-68.136Zm143.685-42.174-1.306.736c6.91 12.25 10.388 26.44 10.388 41.604 0 45.281-37.364 80.781-83.579 80.781s-83.578-35.5-83.578-80.781c0-15.187 3.527-29.4 10.46-41.665l-1.305-.739-1.306-.738c-7.18 12.702-11.8 27.425-11.8 43.142 0 49.337 39.158 89.388 87.529 89.388s87.53-40.051 87.53-89.388c0-15.688-4.568-30.388-11.726-43.077zM49.936 110.139c0-23.22 7.24-44.6 20.166-61.713l-1.197-.904-1.197-.904c-13.306 17.615-21.721 39.627-21.721 63.521 0 59.493 46.76 107.803 104.538 107.803 57.78 0 104.539-48.31 104.539-107.803 0-23.873-8.363-45.87-21.651-63.479l-1.197.904-1.197.903c12.906 17.105 20.095 38.468 20.095 61.672 0 54.665-44.992 97.985-100.589 97.985-55.596 0-100.589-43.32-100.589-97.985Zm221.638.204c0 65.862-54.146 117.556-121.049 117.556-66.902 0-121.048-51.694-121.048-117.556 0-45.26 23.892-84.76 60.203-105.91l-.755-1.295-.755-1.297c-37.194 21.664-63.118 62.13-63.118 108.502 0 70.962 56.142 128.551 125.473 128.551 69.332 0 125.474-57.589 125.474-128.551 0-46.47-25.993-87.011-63.32-108.64L211.927 3l-.752 1.298c36.439 21.115 60.399 60.688 60.399 106.045Zm24.977.033c0 79.25-65.286 138.768-146.026 138.768S4.5 189.626 4.5 110.376h-3c0 84.69 66.722 150.124 149.025 150.124s149.026-65.434 149.026-150.124z"/></svg>
